X:280
T: Gaosheng gechang gongchandang
N: C1777
O: China,Jiangsu Suqian
S: III, 426]
R: Xiaodiao, Huaihong diao]
M: 2/4
L: 1/16
K: F
f2f2g2d2 | c8 |
f2f2dccA | G8 |
f2f2g2f2 | d2d2c4 |
F2A2GFD2 | C8 |
c2cdF4 | G2c4cA | G2cAGAGF | FGD6 |
f2f2g2f2 | f2d2c4 |
f2f2Acdf | c2cAGFD2 | C8 |
F2F2G4 | c2cAG4 |
f2f2g2f2 | f2d2c4 |
f2f2Acdf | c2cAGFD2 | C8

@@@ Tune index: 6835
